X:1
T: The Corn Cutter
C:
R:Reel
Q: 232
K:C
M:4/4
L:1/8
|:B|cC CB c2 Bc|dD D^c d2 =cd|eC Ce fD Df|ed cB c2 cB|
cC CB c2 Bc|dD D^c d2 =cd|eC Ce fD Df|ed cB c2 cf|
gE Eg aF Fa|fF Df gE EB|cC Cc dD Df|ed cB c2 cf|
gE Eg aF Fa|fF Df gE EB|cC Cc dD Df|ed cB c2 c:|
